app/component-library/components/Icons/Icon/assets/security.svg

<svg width="24" height="24" viewBox="0 0 24 24" fill="none" xmlns="http://www.w3.org/2000/svg">
<path d="M10.7709 2.23006L5.78092 4.11006C4.63092 4.54006 3.69092 5.90006 3.69092 7.12006V14.5501C3.69092 15.7301 4.47092 17.2801 5.42092 17.9901L9.72092 21.2001C11.1309 22.2601 13.4509 22.2601 14.8609 21.2001L19.1609 17.9901C20.1109 17.2801 20.8909 15.7301 20.8909 14.5501V7.12006C20.8909 5.89006 19.9509 4.53006 18.8009 4.10006L13.8109 2.23006C12.9609 1.92006 11.6009 1.92006 10.7709 2.23006Z" fill="currentColor" stroke="currentColor" stroke-width="1.5" stroke-linecap="round" stroke-linejoin="round"/>
</svg>

<svg xmlns="http://www.w3.org/2000/svg" width="24" height="24" viewBox="0 0 24 24" fill="none"><path fill="currentColor" stroke="currentColor" stroke-linecap="round" stroke-linejoin="round" stroke-width="1.5" d="M10.77 2.23 5.78 4.11c-1.15.43-2.09 1.79-2.09 3.01v7.43c0 1.18.78 2.73 1.73 3.44l4.3 3.21c1.41 1.06 3.73 1.06 5.14 0l4.3-3.21c.95-.71 1.73-2.26 1.73-3.44V7.12c0-1.23-.94-2.59-2.09-3.02l-4.99-1.87c-.85-.31-2.21-.31-3.04 0Z"/></svg>
